X:414
T: FRISCH AUF IHR GESELLEN
N: E1604
O: Europa, Mitteleuropa, Deutschland, Hessen, Lahn - Gegend
R: Staende -, Handwerker -, Gesellen - Lied, Wanderschaft
M: 4/4
L: 1/8
K: G
D2 | G2BAG2DD | G2BAG2z2 |
B2B2B2d2 | c2A2B2
d2 | c2A2B2dd | c2A2B2z2 |
B3cd2d2 | e3ddccB |
A3Bc2ce | d3ccBB2 |
B2B2A2A2 | B2B2A3
A | B3cdedd | dcc2B2

@@@ Tune index: 5098
